src/assets/images/icon-post-album-off.svg

<svg width="26" height="26" viewBox="0 0 26 26" fill="none" xmlns="http://www.w3.org/2000/svg">
<path d="M10.8333 3.25H3.25V10.8333H10.8333V3.25Z" fill="#DBDBDB" stroke="#DBDBDB" stroke-linecap="round"/>
<path d="M22.7501 3.25H15.1667V10.8333H22.7501V3.25Z" fill="#DBDBDB" stroke="#DBDBDB" stroke-linecap="round"/>
<path d="M22.7501 15.1665H15.1667V22.7498H22.7501V15.1665Z" fill="#DBDBDB" stroke="#DBDBDB" stroke-linecap="round"/>
<path d="M10.8333 15.1665H3.25V22.7498H10.8333V15.1665Z" fill="#DBDBDB" stroke="#DBDBDB" stroke-linecap="round"/>
</svg>

<svg xmlns="http://www.w3.org/2000/svg" width="26" height="26" fill="none" viewBox="0 0 26 26"><path fill="#DBDBDB" stroke="#DBDBDB" stroke-linecap="round" d="M10.833 3.25H3.25v7.583h7.583V3.25zm11.917 0h-7.583v7.583h7.583V3.25zm0 11.916h-7.583v7.584h7.583v-7.584zm-11.917 0H3.25v7.584h7.583v-7.584z"/></svg>
